tools/panel_16/xchat-panel.svg

<svg xmlns="http://www.w3.org/2000/svg" width="16" height="16" version="1.1">
 <defs>
  <style id="current-color-scheme" type="text/css">
   .ColorScheme-Text { color:#d3dae3; } .ColorScheme-Highlight { color:#5294e2; }
  </style>
 </defs>
 <g>
  <path style="fill:currentColor;fill-rule:evenodd" class="ColorScheme-Text" d="m 3.4062,0.9874 c -0.2556,0 -0.5229,0.0854 -0.7187,0.2812 L 1.2812,2.6749 c -0.3917,0.3917 -0.3917,1.0457 0,1.4375 l 0.875,0.875 5.6878,0 L 4.125,1.2686 C 3.9291,1.0727 3.6619,0.9873 3.4062,0.9873 Z m 9.1878,0 c -0.262,0 -0.523,0.0854 -0.719,0.2812 l -3.719,3.7188 5.688,0 0.875,-0.875 c 0.391,-0.3917 0.391,-1.0458 0,-1.4375 L 13.312,1.2687 C 13.117,1.0729 12.855,0.9875 12.594,0.9875 Z M 4.4782,5.4953 C 4.2135289,5.506687 4.0036669,5.7225137 3.9997,5.9874 l 0,1.4996 0,2 c -0.00956,0.676161 1.0095626,0.676161 1,0 l 0,-1.5 1,0 0,1.5 c -0.00956,0.676161 1.0095626,0.676161 1,0 l 0,-2 C 6.9992312,7.2111815 6.7755189,6.9878272 6.4997,6.9878 l -1.5,0 0,-1 C 4.9954826,5.7061684 4.7596026,5.4835863 4.4782,5.4957 Z m 8.9998,0 C 13.213525,5.506944 13.003953,5.7226984 13,5.9874 l 0,1 -0.5,0 c -0.645653,0.020424 -0.645653,0.979176 0,0.9996 l 0.5,0 0,1.5 c 2.8e-5,0.2761309 0.223869,0.4999724 0.5,0.5 l 1.5,0 c 0.676161,0.00956 0.676161,-1.0095626 0,-1 l -1,0 0,-1 1,0 c 0.687813,0.021758 0.687813,-1.0213576 0,-0.9996 l -1,0 0,-1 C 13.995551,5.7061314 13.760055,5.4838794 13.479,5.4957 Z M 0.5,6.9874 C 0.22402517,6.9874275 2.4835114e-4,7.2110253 0,7.487 l 0,2 c 2.7608953e-5,0.2761309 0.22386906,0.4999724 0.5,0.5 l 2,0 c 0.6761613,0.00956 0.6761613,-1.0095626 0,-1 l -1.5,0 0,-1 1.5,0 c 0.6761613,0.00956 0.6761613,-1.0095626 0,-1 l -2,0 z m 8,0 C 8.2240252,6.9874275 8.0002484,7.2110253 8,7.487 l 0,2 c 2.76e-5,0.2761309 0.2238691,0.4999724 0.5,0.5 l 0.75,0 c 0.6761613,0.00956 0.6761613,-1.0095626 0,-1 l -0.25,0 0,-1 1,0 0,1.5 c -0.00956,0.676161 1.009563,0.676161 1,0 l 0,-2 C 10.999752,7.2110253 10.775975,6.9874275 10.5,6.9874 Z m -6.3436,3.9996 -0.875,0.875 c -0.3917,0.392 -0.3917,1.046 0,1.438 l 1.4062,1.406 c 0.3917,0.392 1.0458,0.392 1.4375,0 L 7.844,10.987 Z m 5.9996,0 3.719,3.719 c 0.392,0.392 1.046,0.392 1.438,0 L 14.719,13.3 c 0.392,-0.392 0.392,-1.046 0,-1.438 l -0.875,-0.875 z"/>
 </g>
</svg>

<svg xmlns="http://www.w3.org/2000/svg" width="16" height="16" version="1.1">
 <defs>
  <style id="current-color-scheme" type="text/css">
   .ColorScheme-Text { color:#d3dae3; } .ColorScheme-Highlight { color:#5294e2; }
  </style>
 </defs>
 <path style="fill:currentColor;fill-rule:evenodd" class="ColorScheme-Text" d="M 3.4062,0.9874 C 3.1506,0.9874 2.8833,1.0728 2.6875,1.2686 L 1.2812,2.6749 C 0.8895,3.0666 0.8895,3.7206 1.2812,4.1124 L 2.1562,4.9874 H 7.844 L 4.125,1.2686 C 3.9291,1.0727 3.6619,0.9873 3.4062,0.9873 Z M 12.594,0.9874 C 12.332,0.9874 12.071,1.0728 11.875,1.2686 L 8.156,4.9874 H 13.844 L 14.719,4.1124 C 15.11,3.7207 15.11,3.0666 14.719,2.6749 L 13.312,1.2687 C 13.117,1.0729 12.855,0.9875 12.594,0.9875 Z M 4.4782,5.4953 C 4.2135,5.5067 4.0037,5.7225 3.9997,5.9874 V 7.487 9.487 C 3.9901,10.163 5.0093,10.163 4.9997,9.487 V 7.987 H 5.9997 V 9.487 C 5.9901,10.163 7.0093,10.163 6.9997,9.487 V 7.487 C 6.9992,7.2112 6.7755,6.9878 6.4997,6.9878 H 4.9997 V 5.9878 C 4.9955,5.7062 4.7596,5.4836 4.4782,5.4957 Z M 13.478,5.4953 C 13.214,5.5069 13.004,5.7227 13,5.9874 V 6.9874 H 12.5 C 11.854,7.0078 11.854,7.9666 12.5,7.987 H 13 V 9.487 C 13,9.7631 13.224,9.987 13.5,9.987 H 15 C 15.676,9.9966 15.676,8.9774 15,8.987 H 14 V 7.987 H 15 C 15.688,8.0088 15.688,6.9656 15,6.9874 H 14 V 5.9874 C 13.996,5.7061 13.76,5.4839 13.479,5.4957 Z M 0.5,6.9874 C 0.22403,6.9874 2.4835e-4,7.211 0,7.487 V 9.487 C 2.7609e-5,9.7631 0.22387,9.987 0.5,9.987 H 2.5 C 3.1762,9.9966 3.1762,8.9774 2.5,8.987 H 1 V 7.987 H 2.5 C 3.1762,7.9966 3.1762,6.9774 2.5,6.987 H 0.5 Z M 8.5,6.9874 C 8.224,6.9874 8.0002,7.211 8,7.487 V 9.487 C 8,9.7631 8.2239,9.987 8.5,9.987 H 9.25 C 9.9262,9.9966 9.9262,8.9774 9.25,8.987 H 9 V 7.987 H 10 V 9.487 C 9.9904,10.163 11.01,10.163 11,9.487 V 7.487 C 11,7.211 10.776,6.9874 10.5,6.9874 Z M 2.1564,10.987 1.2814,11.862 C 0.8897,12.254 0.8897,12.908 1.2814,13.3 L 2.6876,14.706 C 3.0793,15.098 3.7334,15.098 4.1251,14.706 L 7.844,10.987 Z M 8.156,10.987 11.875,14.706 C 12.267,15.098 12.921,15.098 13.313,14.706 L 14.719,13.3 C 15.111,12.908 15.111,12.254 14.719,11.862 L 13.844,10.987 Z"/>
</svg>
